!!!COM: Palestrina, Giovanni Perluigi da
!!!OPR: Missa Vestiva i colli
!!!OMD: Credo
!!!OTL: Et in Spiritum
**kern	**kern	**kern	**kern	**kern
*Ibass	*Itenor	*Itenor	*Icalto	*Icant
!Bassus	!Tenor 2	!Tenor 1	!Altus	!Cantus
*clefF4	*clefGv2	*clefGv2	*clefG2	*clefG2
*k[]	*k[]	*k[]	*k[]	*k[]
*A:aeo	*A:aeo	*A:aeo	*A:aeo	*A:aeo
*M4/2	*M4/2	*M4/2	*M4/2	*M4/2
=167	=167	=167	=167	=167
0r	0r	0r	1r	2.a
.	.	.	.	4a
.	.	.	2.d	2dd
.	.	.	.	2dd
.	.	.	4d	.
=168	=168	=168	=168	=168
0r	0r	0r	2a	4cc
.	.	.	.	4b
.	.	.	2a	4cc
.	.	.	.	4dd
.	.	.	2g	2ee
.	.	.	2cc	2ee
=169	=169	=169	=169	=169
0r	0r	1r	2b	2dd
.	.	.	2.a	2.ff
.	.	2.A	.	.
.	.	.	4g	4ee
.	.	.	2e	[2ee
.	.	4A	.	.
=170	=170	=170	=170	=170
2.D	0r	2d	2f	2ee]
.	.	2d	2f	2dd
4D	.	.	.	.
2A	.	4c	2.e	[1ee
.	.	4B	.	.
2A	.	4c	.	.
.	.	4d	4f	.
=171	=171	=171	=171	=171
2G	0r	2e	1g	1ee]
2c	.	2e	.	.
2B	.	2d	2r	1r
[2A	.	[2f	[2a	.
=172	=172	=172	=172	=172
4A]	1r	4f]	2a]	0r
4G	.	4e	.	.
2E	.	1e	2g	.
2F	2r	.	2.a	.
2F	[2a	2d	.	.
.	.	.	4b	.
=173	=173	=173	=173	=173
1E	2a]	1e	2cc	2r
.	2g#	.	2b	1ee
1r	2a	2r	2cc	.
.	2f	[2a	4b	2dd
.	.	.	4a	.
=174	=174	=174	=174	=174
0r	2.e	2a]	2cc	1.ee
.	.	2g#	2.b	.
.	4d	.	.	.
.	2c	2a	.	.
.	.	.	4a	.
.	2d	2f	[2a	2dd
=175	=175	=175	=175	=175
2r	1B	2d	2a]	4dd
.	.	.	.	4cc
1d	.	2d	2g#	4dd
.	.	.	.	4ee
.	1A	2r	[1a	2ff
2c#	.	[2a	.	2ee
=176	=176	=176	=176	=176
2d	2r	2a]	1a]	1dd
2D	1d	2f	.	.
2.A	.	2e	2r	1ee
.	2c#	2A	[2a	.
4G	.	.	.	.
=177	=177	=177	=177	=177
4F	2d	1.a	2a]	2r
4E	.	.	.	.
2D	2d	.	2f	1dd
1A	2.e	.	2e	.
.	.	2a	2A	2cc#
.	4e	.	.	.
=178	=178	=178	=178	=178
1D	1d	1f	2a	2dd
.	.	.	2b	2dd
1r	4c	2g	2cc	1ee
.	4d	.	.	.
.	4e	2c	[2cc	.
.	4f	.	.	.
=179	=179	=179	=179	=179
0r	1.g	4c	2cc]	2ee
.	.	4d	.	.
.	.	4e	4b	2ee
.	.	4f	4a	.
.	.	1g	2b	2dd
.	2c	.	[2cc	2ee
=180	=180	=180	=180	=180
1r	1G	1g	2cc]	1dd
.	.	.	2b	.
2.A	1c	2r	1cc	1ee
.	.	[2e	.	.
4A	.	.	.	.
=181	=181	=181	=181	=181
2c	0r	4e]	1r	0r
.	.	4e	.	.
2B	.	2g	.	.
2A	.	2f	2.a	.
[2A	.	2e	.	.
.	.	.	4a	.
=182	=182	=182	=182	=182
2A]	2.e	2A	2cc	0r
2G	.	2B	2b	.
.	4e	.	.	.
2F	2f	1c	2a	.
2C	2e	.	[2g	.
=183	=183	=183	=183	=183
2D	1d	2A	2g]	1r
2D	.	1a	2f	.
1E	2c	.	1e	2.ee
.	2B	2g#	.	.
.	.	.	.	4ee
=184	=184	=184	=184	=184
0r	0A	1a	2r	2ff
.	.	.	2.a	2ee
.	.	2.e	.	4cc
.	.	.	4a	4dd
.	.	.	2cc	4ee
.	.	4e	.	8dd
.	.	.	.	8ee
=185	=185	=185	=185	=185
0r	1r	2g	2b	4dd
.	.	.	.	4cc
.	.	2f	1a	4b
.	.	.	.	4a
.	2r	1e	.	1b
.	2e	.	2g#	.
=186	=186	=186	=186	=186
2A	4e	2A	1a	1cc
.	4e	.	.	.
4A	2f	2a	.	.
4A	.	.	.	.
2c	2e	4a	1r	1r
.	.	4a	.	.
2B	[2d	2g	.	.
=187	=187	=187	=187	=187
1.A	2d]	2f	2a	0r
.	4c	4e	4a	.
.	4B	4d	4a	.
.	2A	1e	2cc	.
2G	2B	.	2b	.
=188	=188	=188	=188	=188
1F	2c	1A	1a	1r
.	2d	.	.	.
1E	1e	1B	1g#	2r
.	.	.	.	[2ee
=189	=189	=189	=189	=189
2.A	2.c	0r	2r	4ee]
.	.	.	.	4ee
.	.	.	2.a	2ee
4A	4c	.	.	.
2A	2e	.	.	2cc
.	.	.	4a	.
2F	2f	.	2a	[2ff
=190	=190	=190	=190	=190
2.c	1g	2r	2g	2ff]
.	.	1c	2.cc	4ee
4B	.	.	.	4dd
4A	2r	.	.	2ee
4G	.	.	4b	.
4F	[2a	2c	4a	[2ff
4E	.	.	4g	.
=191	=191	=191	=191	=191
2D	2a]	2d	2f	2ff]
2C#	2a	2e	1a	1ee
1D	2.f	2A	.	.
.	.	2A	2a	[2dd
.	8e	.	.	.
.	8d	.	.	.
=192	=192	=192	=192	=192
0A	0e	2A	2.a	2dd]
.	.	2.a	.	4cc#
.	.	.	8g	4b
.	.	.	8f	.
.	.	.	2e	1cc#
.	.	4g	.	.
.	.	2a	2A	.
=193	=193	=193	=193	=193
1D	1d	2f	2r	1dd
.	.	2f	2a	.
1r	1r	2d	2f	2r
.	.	2c	2g	2ee
=194	=194	=194	=194	=194
0r	1r	1f	1a	2cc
.	.	.	.	2dd
.	2r	4e	2g	1ee
.	.	4d	.	.
.	2e	4c	2cc	.
.	.	4B	.	.
=195	=195	=195	=195	=195
0r	2c	2A	2cc	2ee
.	2d	2B	2b	2dd
.	1e	4c	1g	2cc
.	.	4d	.	.
.	.	4e	.	4b
.	.	4f	.	4a
=196	=196	=196	=196	=196
0r	2e	4g	0r	4b
.	.	4e	.	4cc
.	2d	2f	.	2.b
.	2c	2e	.	.
.	.	.	.	4a
.	2d	2f	.	[2a
=197	=197	=197	=197	=197
1r	1B	1d	2r	2a]
.	.	.	1d	2g#
2r	1A	2r	.	1a
2A	.	2e	2c#	.
=198	=198	=198	=198	=198
2F	0r	2A	2d	0r
2G	.	2B	2.e	.
2.A	.	2.c	.	.
.	.	.	4e	.
.	.	.	2e	.
4A	.	4c	.	.
=199	=199	=199	=199	=199
2A	0r	2c	2f	0r
2G	.	2B	2.e	.
2F#	.	2A	.	.
.	.	.	4d	.
2G	.	2B	2d	.
=200	=200	=200	=200	=200
1E	2r	1G	2d	1r
.	2g	.	2c#	.
1D	2g	1A	1d	2r
.	2f#	.	.	2dd
=201	=201	=201	=201	=201
0r	2g	0r	2r	2dd
.	2a	.	2a	2cc#
.	2f	.	2a	2dd
.	2e	.	2g	2ee
=202	=202	=202	=202	=202
0r	4d	2r	2.a	2.ff
.	4e	.	.	.
.	4f	2d	.	.
.	4g	.	4g	4ee
.	2.a	2d	2f	2dd
.	.	2c#	2e	2ee
.	4g	.	.	.
=203	=203	=203	=203	=203
0r	2f	2d	2d	0a
.	2e	2e	2c#	.
.	1d	2.f	2d	.
.	.	.	[2a	.
.	.	4e	.	.
=204	=204	=204	=204	=204
1r	0r	2d	2a]	1b
.	.	2e	2g#	.
2r	.	1A	1a	[1cc
[2A	.	.	.	.
=205	=205	=205	=205	=205
2A]	2r	1e	0r	2cc]
2G#	1e	.	.	2b
2A	.	1r	.	2cc
2B	2d	.	.	2b
=206	=206	=206	=206	=206
2.c	2e	2r	0r	2a
.	2e	1c	.	2g
4B	.	.	.	.
2A	1e	.	.	2a
2G	.	2B	.	2b
=207	=207	=207	=207	=207
1F	1A	2c	2r	2.a
.	.	2d	1a	.
.	.	.	.	4b
1E	2r	2.e	.	2cc
.	[2e	.	2g	2b
.	.	4d	.	.
=208	=208	=208	=208	=208
0r	2e]	2c	2a	2a
.	2d	2B	2b	2g
.	2e	1A	2cc	1a
.	2f#	.	2cc	.
=209	=209	=209	=209	=209
0r	2.g	[0G	1b	2d
.	.	.	.	4g
.	4f	.	.	4a
.	2e	.	1g	4b
.	.	.	.	4cc
.	2d	.	.	[2dd
=210	=210	=210	=210	=210
0r	1e	0G]	0g	2dd]
.	.	.	.	1cc
.	1d	.	.	.
.	.	.	.	2b
=211	=211	=211	=211	=211
1r	1e	0c	1g	1cc
[1A	1e	.	[1cc	[1a
=212	=212	=212	=212	=212
1A]	1.c	1e	1cc]	1a]
1F	.	1f	1a	1cc
.	[2f	.	.	.
=213	=213	=213	=213	=213
0c	2f]	2g	0g	0cc
.	4e	2c	.	.
.	4d	.	.	.
.	1e	2r	.	.
.	.	[2c	.	.
=214	=214	=214	=214	=214
1F	1.f	2c]	1a	1cc
.	.	2c	.	.
1r	.	2d	1r	2r
.	2g	2e	.	[2cc
=215	=215	=215	=215	=215
0r	2.a	2.f	2r	2cc]
.	.	.	1f	2cc
.	4g	4g	.	.
.	2f	2a	.	2dd
.	2e	2g	2g	2ee
=216	=216	=216	=216	=216
0r	1d	1f	2a	1ff
.	.	.	2b	.
.	2c	1g	[1cc	1ee
.	2e	.	.	.
=217	=217	=217	=217	=217
2r	1f	2.a	2cc]	1.cc
1F	.	.	2a	.
.	.	4g	.	.
.	1c	2.f	1a	.
2F	.	.	.	2a
.	.	4e	.	.
=218	=218	=218	=218	=218
2G	0r	2d	2g	2b-
2A	.	2c	2.f	1a
1B-	.	1d	.	.
.	.	.	4e	.
.	.	.	[2d	2g
=219	=219	=219	=219	=219
1A	2r	1e	2d]	1a
.	2e	.	2c	.
[1F	2d	[1a	[1f	2r
.	4c	.	.	[2cc
.	4B	.	.	.
=220	=220	=220	=220	=220
2F]	2A	2a]	2f]	2cc]
2E	1c	2g	2g	2cc
1D	.	1f	2a	1dd
.	2B	.	2d	.
=221	=221	=221	=221	=221
2C	0c	1e	1g	2ee
2c	.	.	.	2ee
2A	.	1r	2a	2ee
4A	.	.	2a	4ee
4A	.	.	.	4ee
=222	=222	=222	=222	=222
2d	0r	1r	4a	2ff
.	.	.	4a	.
2G	.	.	2b	2dd
2.c	.	2r	1g	2.ee
.	.	2e	.	.
4B	.	.	.	4dd
=223	=223	=223	=223	=223
1A	0r	2e	1.a	4cc
.	.	.	.	4b
.	.	4e	.	1cc
.	.	4e	.	.
1r	.	2f	.	.
.	.	2d	2f	2dd
=224	=224	=224	=224	=224
0r	2r	2e	2g	2b
.	2a	2c	2e	2ee
.	2a	1d	4f	4dd
.	.	.	4g	4ee
.	4a	.	4a	4ff
.	4a	.	4f	4dd
=225	=225	=225	=225	=225
1r	2b-	2G	4g	4ee
.	.	.	4f	4dd
.	2g	2B-	4e	1dd
.	.	.	4d	.
2r	[1a	1A	1e	.
2A	.	.	.	4cc#
.	.	.	.	4b
=226	=226	=226	=226	=226
2A	2a]	0r	1e	1cc#
4A	2a	.	.	.
4A	.	.	.	.
2B-	2f	.	1d	2dd
2G	4g	.	.	2b-
.	4f	.	.	.
=227	=227	=227	=227	=227
1.A	4e	2e	2r	1a
.	4d	.	.	.
.	4c	2e	2a	.
.	4B	.	.	.
.	1c	4e	2a	2r
.	.	4e	.	.
2F	.	2f	4a	2a
.	.	.	4a	.
=228	=228	=228	=228	=228
2G	1g	1d	2b-	2.dd
2B-	.	.	2g	.
.	.	.	.	4dd
1A	1r	2e	2a	2cc
.	.	2c	2a	2ee
=229	=229	=229	=229	=229
1D	1r	2d	4f	1dd
.	.	.	4g	.
.	.	2f	4a	.
.	.	.	4b	.
2.A	2r	2e	1cc	1ee
.	2e	2A	.	.
4A	.	.	.	.
=230	=230	=230	=230	=230
2G#	2e	2B	2b	1ee
2A	4e	2c	2a	.
.	4e	.	.	.
2D	2f	4d	4b	1r
.	.	4c	4a	.
2F	2d	4B	[2a	.
.	.	4A	.	.
=231	=231	=231	=231	=231
0E	2.e	1B	2a]	2r
.	.	.	4g#	2b
.	4e	.	4f#	.
.	1e	2B	1g#	2b
.	.	2e	.	4b
.	.	.	.	4b
=232	=232	=232	=232	=232
1r	1A	2e	[0a	2cc#
.	.	4e	.	2cc#
.	.	4e	.	.
1D	2d	2f	.	2dd
.	4d	2d	.	2ff
.	4d	.	.	.
=233	=233	=233	=233	=233
2.A	2c	2e	1a_	2ee
.	2A	2c	.	2.ee
4G	.	.	.	.
2F	2a	1d	1a_	.
.	.	.	.	4dd
2D	[2f	.	.	[2dd
=234	=234	=234	=234	=234
1A	4f]	1e	0a]	4dd]
.	4e	.	.	4cc#
.	2.e	.	.	2cc#
1D	.	1f	.	1dd
.	4d	.	.	.
.	[2d	.	.	.
=235	=235	=235	=235	=235
[0A	2d]	[0e	[0a	[0ee
.	4c#	.	.	.
.	4B	.	.	.
.	1c#	.	.	.
=236	=236	=236	=236	=236
0A]	0c#	0e]	0a]	0ee]
==	==	==	==	==
*-	*-	*-	*-	*-
!!!CDT: 1525/^1526/-1594/2/2
!!!OCY: Italia
!!!AGN: Mass (Parody)
!!!AST: renaissance, vocal
!!!ASW: Madrigal 1566 (Palestrina)
!!!PWK: Masses, Book 9
!!!RNB: Cadence finals: D
!!!YOR: Le Opere Complete, v. 25, p. 54
!!!YOO: Rome, Italy: Fratelli Scalera
!!!END: 1992//
!!!EED: John Miller
!!!YEC: Copyright 2000, John Miller
!!!YEN: United States of America
!!!YEM: Rights to all derivative electronic formats reserved.
!!!YEM: Refer to licensing agreement for further details.
!!!YEM: This file must be accompanied by the licensing agreement.
!!!YEM: A copy of the licensing agreement may be found at http://www.music-cog.ohio-state.edu/HumdrumDatabases/Palestrina/license.txt
!!!EMD: converted to Humdrum by Bret Aarden
